%
O1000(CHARPY SPECIMEN FIXTURETEST - OP1)
(POSTED - 05-13-22 11:06 AM)
(MACHINE - TORMACH_PCNC1100)
(T1 -1/2" 2FL HSS)
(T17 -3/8 X 82° CHAMFER MILL)
(T12 -1/4" ENGRAVING MILL)
G20
G0 G17 G40 G49 G80 G90

N1
(1/2" 2FL HSS)
(POCKET ROUGH)
T1 G43 H1 M6
S1041 M03
G0 G90 G54 X-.956 Y-.73
Z.5
Z.05
G1 X-.9416 Y-.7045 Z.0441 F2.51
X-.9216 Y-.6829 Z.0382
X-.8972 Y-.6666 Z.0324
X-.8697 Y-.6565 Z.0265
X-.8406 Y-.6531 Z.0206
X-.8127 Y-.6562 Z.015
X-.7863 Y-.6654 Z.0094
X-.7626 Y-.6803 Z.0038
X-.7428 Y-.7001 Z-.0018
X-.7279 Y-.7238 Z-.0074
X-.7187 Y-.7502 Z-.013
X-.7156 Y-.7781 Z-.0186
X-.7187 Y-.8059 Z-.0242
X-.7279 Y-.8323 Z-.0298
X-.7428 Y-.856 Z-.0354
X-.7626 Y-.8758 Z-.041
X-.7863 Y-.8907 Z-.0466
X-.8127 Y-.8999 Z-.0523
X-.8406 Y-.9031 Z-.0579
X-.8684 Y-.8999 Z-.0635
X-.8948 Y-.8907 Z-.0691
X-.9185 Y-.8758 Z-.0747
X-.9383 Y-.856 Z-.0803
X-.9532 Y-.8323 Z-.0859
X-.9624 Y-.8059 Z-.0915
X-.9656 Y-.7781 Z-.0971
X-.9624 Y-.7502 Z-.1027
X-.9532 Y-.7238 Z-.1083
X-.9383 Y-.7001 Z-.1139
X-.9185 Y-.6803 Z-.1195
X-.8948 Y-.6654 Z-.1251
X-.8684 Y-.6562 Z-.1307
X-.8406 Y-.6531 Z-.1363
X-.8127 Y-.6562 Z-.1419
X-.7863 Y-.6654 Z-.1475
X-.7626 Y-.6803 Z-.1531
X-.7428 Y-.7001 Z-.1587
X-.7279 Y-.7238 Z-.1644
X-.7187 Y-.7502 Z-.17
X-.7156 Y-.7781 Z-.1756
X-.7187 Y-.8059 Z-.1812
X-.7279 Y-.8323 Z-.1868
X-.7428 Y-.856 Z-.1924
X-.7626 Y-.8758 Z-.198
X-.7863 Y-.8907 Z-.2036
X-.8127 Y-.8999 Z-.2092
X-.8406 Y-.9031 Z-.2148
X-.8684 Y-.8999 Z-.2204
X-.8948 Y-.8907 Z-.226
X-.9185 Y-.8758 Z-.2316
X-.9383 Y-.856 Z-.2372
X-.9532 Y-.8323 Z-.2428
X-.9624 Y-.8059 Z-.2484
X-.9656 Y-.7781 Z-.254
X-.9624 Y-.7502 Z-.2596
X-.9532 Y-.7238 Z-.2652
X-.9383 Y-.7001 Z-.2708
X-.9185 Y-.6803 Z-.2765
X-.8948 Y-.6654 Z-.2821
X-.8684 Y-.6562 Z-.2877
X-.8406 Y-.6531 Z-.2933
X-.8127 Y-.6562 Z-.2989
X-.7863 Y-.6654 Z-.3045
X-.7626 Y-.6803 Z-.3101
X-.7428 Y-.7001 Z-.3157
X-.7279 Y-.7238 Z-.3213
X-.7187 Y-.7502 Z-.3269
X-.7156 Y-.7781 Z-.3325
G2 X-.8406 Y-.9031 I-.125 J0.
X-.9656 Y-.7781 I0. J.125
X-.8406 Y-.6531 I.125 J0.
X-.7156 Y-.7781 I0. J-.125
G1 X-.7194 Y-.7972 Z-.3312
X-.7302 Y-.8134 Z-.33
X-.7464 Y-.8242 Z-.3287
X-.7656 Y-.8281 Z-.3275
X-.7847 Y-.8242 Z-.3262
X-.8009 Y-.8134 Z-.325
X-.8117 Y-.7972 Z-.3237
X-.8156 Y-.7781 Z-.3225
X-.8117 Y-.7589 Z-.3237 F2.67
X-.8009 Y-.7427 Z-.325
X-.7847 Y-.7319 Z-.3262
X-.7656 Y-.7281 Z-.3275
X-.7464 Y-.7319 Z-.3287
X-.7302 Y-.7427 Z-.33
X-.7194 Y-.7589 Z-.3312
X-.7156 Y-.7781 Z-.3325
X-.7154 Y-.7862
X-.7153 Y-.7917
X-.7154 Y-.7973
X-.7157 Y-.8031
X-.7161 Y-.8092
X-.7169 Y-.8154
X-.718 Y-.8217
X-.7194 Y-.8282
X-.7211 Y-.8348
X-.7232 Y-.8414
X-.7257 Y-.848
X-.7286 Y-.8547
X-.7318 Y-.8613
X-.7355 Y-.8678
X-.7396 Y-.8743
X-.7441 Y-.8806
X-.749 Y-.8868
X-.7543 Y-.8929
X-.7601 Y-.8987
X-.7662 Y-.9043
X-.7727 Y-.9096
X-.7797 Y-.9147
X-.787 Y-.9194
X-.7946 Y-.9238
X-.8027 Y-.9278
X-.8111 Y-.9314
X-.8197 Y-.9345
X-.8287 Y-.9372
X-.838 Y-.9394
X-.8475 Y-.9411
X-.8573 Y-.9423
X-.8672 Y-.9429
X-.8774 Y-.943
X-.8876 Y-.9424
X-.898 Y-.9413
X-.9085 Y-.9395
X-.919 Y-.937
X-.9294 Y-.9339
X-.9399 Y-.9302
X-.9502 Y-.9257
X-.9605 Y-.9206
X-.9705 Y-.9148
X-.9804 Y-.9082
X-.99 Y-.901
X-.9993 Y-.8931
X-1.0082 Y-.8845
X-1.0168 Y-.8753
X-1.0249 Y-.8654
X-1.0325 Y-.8548
X-1.0396 Y-.8436
X-1.0461 Y-.8318
X-1.0519 Y-.8195
X-1.057 Y-.8065
X-1.0615 Y-.7931
X-1.0651 Y-.7792
X-1.0679 Y-.7648
X-1.0699 Y-.75
X-1.0709 Y-.7349
X-1.071 Y-.7195
X-1.0701 Y-.7038
X-1.0682 Y-.6879
X-1.0653 Y-.6719
X-1.0612 Y-.6559
X-1.0561 Y-.6398
X-1.0498 Y-.6238
X-1.0424 Y-.6079
X-1.0338 Y-.5923
X-1.024 Y-.577
X-1.013 Y-.562
X-1.0009 Y-.5476
X-.9876 Y-.5336
X-.9732 Y-.5204
X-.9576 Y-.5079
X-.9408 Y-.4962
X-.923 Y-.4854
X-.9042 Y-.4757
X-.8843 Y-.467
X-.8635 Y-.4596
X-.8418 Y-.4535
X-.8192 Y-.4487
X-.8167 Y-.4483
G2 X-.8079 Y-.4475 I.0088 J-.0492
G1 X-.7829
X-.7579
X-.7329
X-.7079
X-.6829
X-.6579
X-.6329
X-.6079
X-.5829
X-.5571 Y-.4494
X-.5534 Y-.4499
G2 X-.5305 Y-.4591 I-.0066 J-.0496
X-.5147 Y-.4782 I-.0295 J-.0404
X-.51 Y-.4995 I-.0453 J-.0213
G1 Y-.5245
Y-.5495
Y-.5745
Y-.5995
Y-.6245
Y-.6495
Y-.6745
Y-.6995
Y-.7245
Y-.7495
Y-.7745
Y-.7995
Y-.8245
Y-.8495
Y-.8745
Y-.8995
Y-.9245
Y-.9495
Y-.9745
Y-.9995
Y-1.0245
Y-1.0495
Y-1.0586
G2 X-.5161 Y-1.0826 I-.05 J0.
X-.533 Y-1.1007 I-.0439 J.024
X-.5565 Y-1.1085 I-.027 J.0421
X-.56 Y-1.1086 I-.0035 J.0499
G1 X-.585
X-.61
X-.635
X-.66
X-.685
X-.71
X-.735
X-.76
X-.785
X-.81
X-.835
X-.86
X-.885
X-.91
X-.935
X-.96
X-.985
X-1.01
X-1.035
X-1.06
X-1.085
X-1.11
X-1.135
X-1.16
X-1.185
X-1.1873
X-1.2133 Y-1.1072
X-1.2392 Y-1.1033
X-1.2647 Y-1.097
X-1.2894 Y-1.0885
X-1.3131 Y-1.0779
X-1.3357 Y-1.0655
X-1.3569 Y-1.0516
X-1.3768 Y-1.0362
X-1.3951 Y-1.0198
X-1.412 Y-1.0025
X-1.4276 Y-.9843
X-1.4416 Y-.9657
X-1.4543 Y-.9465
X-1.4657 Y-.9271
X-1.4758 Y-.9075
X-1.4849 Y-.8876
X-1.4928 Y-.8678
X-1.4996 Y-.8479
X-1.5056 Y-.8279
X-1.5105 Y-.8083
X-1.5146 Y-.7884
X-1.5179 Y-.7688
X-1.5205 Y-.7494
X-1.5223 Y-.7299
X-1.5239 Y-.6927
X-1.5231 Y-.656
X-1.5202 Y-.6197
X-1.5152 Y-.5843
X-1.5083 Y-.5497
X-1.4995 Y-.5156
X-1.4892 Y-.4826
G2 X-1.4762 Y-.4615 I.0477 J-.0149
X-1.4547 Y-.4493 I.0347 J-.036
X-1.4415 Y-.4475 I.0132 J-.0482
G1 X-1.4165
X-1.3915
X-1.3665
X-1.3415
X-1.3165
X-1.2915
X-1.2665
X-1.2415
X-1.2165
X-1.1915
X-1.1665
X-1.1415
X-1.1165
X-1.0915
X-1.0665
X-1.0415
X-1.0165
X-.9915
X-.9665
X-.9415
X-.9165
X-.8915
X-.8665
X-.8415
X-.8165
X-.7915
X-.7697 Y-.4496 Z-.3304
X-.7487 Y-.4559 Z-.3284
X-.7288 Y-.4621 Z-.3264
X-.7081 Y-.4644 Z-.3245
X-.6873 Y-.4628 Z-.3225
X-.6632 Y-.4559 Z-.3261
X-.6422 Y-.4496 Z-.3293
X-.6204 Y-.4475 Z-.3325
X-.5829
X-.56
G2 X-.536 Y-.4536 I0. J-.05
X-.5179 Y-.4705 I-.024 J-.0439
X-.5101 Y-.494 I-.0421 J-.027
X-.51 Y-.4975 I-.0499 J-.0035
G1 Y-.5225
X-.5125 Y-.5459 Z-.331
X-.5198 Y-.5683 Z-.3295
X-.5315 Y-.5887 Z-.328
X-.5473 Y-.6062 Z-.3265
X-.594 Y-.6481 Z-.3225
X-1.019 Y-1.0298 F100.
X-1.0746 Y-1.0798 Z-.3273 F2.67
X-1.097 Y-1.0955 Z-.329
X-1.1226 Y-1.1053 Z-.3308
X-1.1498 Y-1.1086 Z-.3325
X-1.1873
X-1.2123
X-1.2373
X-1.2623
X-1.2873
X-1.3123
X-1.3373
X-1.3623
X-1.3873
X-1.4123
X-1.4373
X-1.4623
X-1.4873
X-1.5123
X-1.5373
X-1.5623
X-1.5873
X-1.6123
X-1.6373
X-1.6439
X-1.6697 Y-1.107
X-1.6955 Y-1.1028
X-1.7208 Y-1.0961
X-1.7455 Y-1.0872
X-1.7691 Y-1.0762
X-1.7915 Y-1.0634
X-1.8124 Y-1.049
X-1.832 Y-1.0333
X-1.8499 Y-1.0167
X-1.8664 Y-.9992
X-1.8814 Y-.9811
X-1.895 Y-.9626
X-1.9074 Y-.9437
X-1.9184 Y-.9247
X-1.9281 Y-.9058
X-1.9367 Y-.8871
X-1.9446 Y-.868
X-1.9515 Y-.849
X-1.9574 Y-.8304
X-1.967 Y-.7947
X-1.9742 Y-.7591
X-1.9791 Y-.7247
X-1.9823 Y-.6903
X-1.9839 Y-.6572
X-1.984 Y-.6239
X-1.9829 Y-.5918
X-1.9805 Y-.5595
X-1.9771 Y-.5283
X-1.9726 Y-.4969
X-1.9714 Y-.4894
G2 X-1.9614 Y-.4667 I.0493 J-.0081
X-1.9419 Y-.4516 I.0393 J-.0308
X-1.9221 Y-.4475 I.0198 J-.0459
G1 X-1.8971
X-1.8721
X-1.8471
X-1.8221
X-1.7971
X-1.7721
X-1.7471
X-1.7221
X-1.6971
X-1.6721
X-1.6471
X-1.6221
X-1.5971
X-1.5721
X-1.5471
X-1.5221
X-1.4971
X-1.4721
X-1.4471
X-1.4221
X-1.3961 Y-.4505 Z-.3308
X-1.3716 Y-.4595 Z-.3292
X-1.3497 Y-.4738 Z-.3275
X-1.3318 Y-.4928 Z-.3258
X-1.3188 Y-.5154 Z-.3242
X-1.3113 Y-.5405 Z-.3225
G2 X-1.3096 Y-.56 I-.1108 J-.0195 F100.
X-1.3184 Y-.6038 I-.1125 J0.
G1 X-1.4929 Y-1.0165
X-1.5028 Y-1.0399 Z-.3241 F2.67
X-1.5158 Y-1.0628 Z-.3258
X-1.5338 Y-1.082 Z-.3275
X-1.5557 Y-1.0965 Z-.3291
X-1.5803 Y-1.1055 Z-.3308
X-1.6064 Y-1.1086 Z-.3325
X-1.6439
X-1.6689
X-1.6939
X-1.7189
X-1.7439
X-1.7689
X-1.7939
X-1.8189
X-1.8439
X-1.8689
X-1.8939
X-1.9189
X-1.9439
X-1.9689
X-1.9939
X-2.0189
X-2.0439
X-2.0689
X-2.0939
X-2.1197 Y-1.1072
X-2.1456 Y-1.1033
X-2.1711 Y-1.097
X-2.1958 Y-1.0884
X-2.2195 Y-1.0776
X-2.242 Y-1.0651
X-2.263 Y-1.0512
X-2.2827 Y-1.0359
X-2.301 Y-1.0195
X-2.3176 Y-1.0025
X-2.3327 Y-.985
X-2.3466 Y-.9669
X-2.3561 Y-.9532
G2 X-2.3647 Y-.9301 I.0411 J.0285
X-2.365 Y-.9247 I.0497 J.0054
G1 Y-.8997
Y-.8747
Y-.8497
Y-.8247
Y-.7997
Y-.7747
Y-.7497
Y-.7247
Y-.6997
Y-.6747
Y-.6497
Y-.6247
Y-.5997
Y-.5747
Y-.5497
Y-.5247
Y-.4997
Y-.4975
G2 X-2.3589 Y-.4735 I.05 J0.
X-2.342 Y-.4554 I.0439 J-.024
X-2.3185 Y-.4476 I.027 J-.0421
X-2.315 Y-.4475 I.0035 J-.0499
G1 X-2.29
X-2.265
X-2.24
X-2.215
X-2.19
X-2.165
X-2.14
X-2.115
X-2.09
X-2.065
X-2.04
X-2.015
X-1.99
X-1.965
X-1.94
X-1.915
X-1.89
X-1.8641 Y-.4505 Z-.3308
X-1.8395 Y-.4595 Z-.3292
X-1.8177 Y-.4738 Z-.3275
X-1.7998 Y-.4928 Z-.3258
X-1.7867 Y-.5154 Z-.3242
X-1.7792 Y-.5405 Z-.3225
G2 X-1.7775 Y-.56 I-.1108 J-.0195 F100.
X-1.7849 Y-.6001 I-.1125 J0.
G1 X-1.9437 Y-1.0162
X-1.9513 Y-1.0362 Z-.3239 F2.67
X-1.964 Y-1.0602 Z-.3256
X-1.9819 Y-1.0804 Z-.3273
X-2.0042 Y-1.0958 Z-.329
X-2.0296 Y-1.1053 Z-.3308
X-2.0564 Y-1.1086 Z-.3325
X-2.0939
X-2.1189
X-2.1439
X-2.1689
X-2.1939
X-2.2189
X-2.2439
X-2.2689
X-2.2939
X-2.315
G2 X-2.339 Y-1.1025 I0. J.05
X-2.3571 Y-1.0856 I.024 J.0439
X-2.3649 Y-1.0621 I.0421 J.027
X-2.365 Y-1.0586 I.0499 J.0035
G1 Y-1.0336
Y-1.0086
Y-.9836
Y-.9586
Y-.9336
Y-.9086
X-2.3626 Y-.8854 Z-.3305
X-2.3555 Y-.8633 Z-.3285
X-2.3269 Y-.7983 Z-.3225
G0 Z.5
(POCKET FINISH)
S1087 M03
G0 G90 X-1.0676 Y-.5583
Z.5
Z.1
G1 Z-.3325 F6.21
X-1.2262 Y-.4843 F10.18
G3 X-1.4375 Y-.4375 I-.2113 J-.4532
G1 X-2.35
G3 X-2.375 Y-.4625 I0. J-.025
G1 Y-1.0936
G3 X-2.35 Y-1.1186 I.025 J0.
G1 X-.525
G3 X-.5 Y-1.0936 I0. J.025
G1 Y-.4625
G3 X-.525 Y-.4375 I-.025 J0.
G1 X-1.4375
G3 X-1.6488 Y-.4843 I0. J-.5
G1 X-1.8074 Y-.5583
G0 Z.5
M05
G91 G28 Z0.
G90
M01

N2
(3/8 X 82° CHAMFER MILL)
T17 G43 H17 M6
S1555 M03
G0 G90 G54 X-1.3404 Y-.2812
Z.5
Z.377
Z.127
G1 Z-.073 F25.
G3 X-1.4375 Y-.2685 I-.0971 J-.3623 F3.79
G1 X-2.35
G3 X-2.544 Y-.4625 I0. J-.194
G1 Y-1.0936
G3 X-2.35 Y-1.2876 I.194 J0.
G1 X-.525
G3 X-.331 Y-1.0936 I0. J.194
G1 Y-.4625
G3 X-.525 Y-.2685 I-.194 J0.
G1 X-1.4375
G3 X-1.5346 Y-.2812 I0. J-.375
G0 Z.177
Z.377
X-1.3404 Y1.2749
Z.127
G1 Z-.073 F25.
G3 X-1.4375 Y1.2876 I-.0971 J-.3623 F3.79
G1 X-2.35
G3 X-2.544 Y1.0936 I0. J-.194
G1 Y.4625
G3 X-2.35 Y.2685 I.194 J0.
G1 X-.525
G3 X-.331 Y.4625 I0. J.194
G1 Y1.0936
G3 X-.525 Y1.2876 I-.194 J0.
G1 X-1.4375
G3 X-1.5346 Y1.2749 I0. J-.375
G0 Z.177
Z.5
M05
G91 G28 Z0.
G90
M01

N3
(1/4" ENGRAVING MILL)
T12 G43 H12 M6
S5140 M03
G0 G90 G54 X-2.7034 Y1.6334
Z.5
Z.1
G1 Z-.005 F6.42
X-2.7222 Y1.6584 F100.
X-2.7406 Y1.6731
X-2.7642 Y1.684
X-2.7893 Y1.6876
X-2.8165 Y1.6836
X-2.8304 Y1.678
X-2.8481 Y1.6665
X-2.863 Y1.6511
X-2.8751 Y1.6327
X-2.8846 Y1.612
X-2.8908 Y1.5895
X-2.8929 Y1.5656
X-2.8889 Y1.5319
X-2.8843 Y1.5173
X-2.8743 Y1.4962
X-2.8614 Y1.4783
X-2.846 Y1.4638
X-2.8286 Y1.4528
X-2.8096 Y1.446
X-2.7893 Y1.4437
X-2.7623 Y1.4477
X-2.7386 Y1.4593
X-2.7377 Y1.4599
X-2.7167 Y1.4792
X-2.6999 Y1.5046
G0 Z.2
X-2.6462 Y1.4426
Z.1
G1 Z-.005 F6.42
Y1.6902 F100.
G0 Z.2
Y1.5716
Z.1
G1 Z-.005 F6.42
X-2.4648 F100.
G0 Z.2
X-2.3763 Y1.5262
Z.1
G1 Z-.005 F6.42
X-2.2457 F100.
G0 Z.2
X-2.2109 Y1.4426
Z.1
G1 Z-.005 F6.42
X-2.311 Y1.6902 F100.
X-2.4111 Y1.4426
G0 Z.2
X-2.4648
Z.1
G1 Z-.005 F6.42
Y1.6902 F100.
G0 Z.2
X-2.1569 Y1.5575
Z.1
G1 Z-.005 F6.42
X-2.0464 F100.
X-2.0218 Y1.5615
X-2.0207 Y1.5618
X-2.009 Y1.5673
X-1.9988 Y1.5748
X-1.9903 Y1.5843
X-1.9837 Y1.5954
X-1.9793 Y1.6081
X-1.9779 Y1.6219
X-1.9819 Y1.6442
X-1.9837 Y1.6484
X-1.9903 Y1.6595
X-1.9988 Y1.6685
X-2.0207 Y1.6815
X-2.0334 Y1.6852
X-2.0464 Y1.6865
X-2.1569
Y1.4426
G0 Z.2
X-2.0608 Y1.5575
Z.1
G1 Z-.005 F6.42
X-2.0354 Y1.5434 F100.
X-2.034 Y1.5424
X-2.0229 Y1.5319
X-2.0138 Y1.5192
X-1.9647 Y1.4426
G0 Z.2
X-1.9108
Z.1
G1 Z-.005 F6.42
Y1.6867 F100.
X-1.8155
X-1.7897 Y1.6827
X-1.7892 Y1.6826
X-1.7672 Y1.6718
X-1.7647 Y1.6698
X-1.7487 Y1.652
X-1.7469 Y1.6491
X-1.7405 Y1.6296
X-1.74 Y1.6221
X-1.744 Y1.6012
X-1.7469 Y1.5952
X-1.7624 Y1.5765
X-1.7647 Y1.5746
X-1.7856 Y1.563
X-1.7892 Y1.5618
X-1.813 Y1.5577
X-1.8155
X-1.9108
G0 Z.2
X-1.6867 Y1.6902
Z.1
G1 Z-.005 F6.42
X-1.5992 Y1.5542 F100.
Y1.4426
G0 Z.2
Y1.5542
Z.1
G1 Z-.005 F6.42
X-1.5105 Y1.6902 F100.
G0 Z.2
X-1.268
Z.1
G1 Z-.005 F6.42
Y1.4426 F100.
G0 Z.2
X-1.2143
Z.1
G1 Z-.005 F6.42
Y1.6891 F100.
X-1.1967
X-1.1038 Y1.4426
X-1.0107 Y1.6891
X-.9933
Y1.4426
G0 Z.2
X-.9393
Z.1
G1 Z-.005 F6.42
Y1.6867 F100.
X-.8441
X-.8183 Y1.6827
X-.8178 Y1.6826
X-.7958 Y1.6718
X-.7932 Y1.6698
X-.7773 Y1.652
X-.7755 Y1.6491
X-.769 Y1.6296
X-.7686 Y1.6221
X-.7726 Y1.6012
X-.7755 Y1.5952
X-.7909 Y1.5765
X-.7932 Y1.5746
X-.8141 Y1.563
X-.8178 Y1.5618
X-.8416 Y1.5577
X-.8441
X-.9393
G0 Z.2
X-.7147 Y1.4426
Z.1
G1 Z-.005 F6.42
X-.6146 Y1.6902 F100.
X-.5145 Y1.4426
G0 Z.2
X-.5493 Y1.5262
Z.1
G1 Z-.005 F6.42
X-.6799 F100.
G0 Z.2
X-.2678 Y1.5046
Z.1
G1 Z-.005 F6.42
X-.2864 Y1.477 F100.
X-.3032 Y1.4616
X-.3055 Y1.4599
X-.3297 Y1.4478
X-.356 Y1.4437
X-.3572
X-.3837 Y1.4477
X-.3964 Y1.4528
X-.4202 Y1.4691
X-.4292 Y1.4783
X-.4462 Y1.5037
X-.4522 Y1.5173
X-.4598 Y1.5486
X-.4608 Y1.5656
X-.4568 Y1.5985
X-.4525 Y1.612
X-.4363 Y1.6436
X-.4308 Y1.6511
X-.4107 Y1.6706
X-.3983 Y1.678
X-.3727 Y1.6864
X-.3572 Y1.6876
X-.3308 Y1.6836
X-.3084 Y1.6731
X-.2862 Y1.6543
X-.2712 Y1.6334
G0 Z.2
X-.2138 Y1.6867
Z.1
G1 Z-.005 F6.42
X-.0315 F100.
G0 Z.2
X-.1221
Z.1
G1 Z-.005 F6.42
Y1.4426 F100.
G0 Z.2
X.2112 Y1.6867
Z.1
G1 Z-.005 F6.42
X.3935 F100.
G0 Z.2
X.3029
Z.1
G1 Z-.005 F6.42
Y1.4426 F100.
G0 Z.2
X.4464 Y1.5716
Z.1
G1 Z-.005 F6.42
X.5952 F100.
G0 Z.2
X.6577 Y1.5046
Z.1
G1 Z-.005 F6.42
X.6644 Y1.487 F100.
X.6749 Y1.4711
X.6753 Y1.4707
X.6936 Y1.4571
X.7167 Y1.4488
X.7425 Y1.4461
X.7692 Y1.4489
X.7752 Y1.4505
X.789 Y1.4561
X.8007 Y1.4636
X.8104 Y1.4727
X.8178 Y1.483
X.8225 Y1.4938
X.824 Y1.5048
X.82 Y1.5231
X.8118 Y1.5357
X.7962 Y1.5484
X.774 Y1.5581
X.7066 Y1.5769
X.6853 Y1.5883
X.6715 Y1.6012
X.6639 Y1.6157
X.6614 Y1.6318
X.6654 Y1.6488
X.668 Y1.6535
X.6757 Y1.6633
X.6856 Y1.6716
X.7111 Y1.6833
X.7262 Y1.6865
X.7425 Y1.6876
X.7689 Y1.685
X.7923 Y1.6759
X.8106 Y1.6605
X.8172 Y1.6509
X.8219 Y1.6402
G0 Z.2
X.879 Y1.6867
Z.1
G1 Z-.005 F6.42
X1.0613 F100.
G0 Z.2
X.9708
Z.1
G1 Z-.005 F6.42
Y1.4426 F100.
G0 Z.2
X.6044 Y1.4461
Z.1
G1 Z-.005 F6.42
X.4464 F100.
Y1.6867
X.6044
G0 Z.5
M05
G91 G28 Z0.
G28 Y0.
G90
M30
%
